Origami/22x22/apps/mattermost.svg

<svg width="22" height="22" version="1.1" viewBox="0 0 22 22" xmlns="http://www.w3.org/2000/svg">
 <circle cx="11" cy="11.5" r="10" style="opacity:.2"/>
 <circle cx="11" cy="11" r="10" style="fill:#248afd"/>
 <path d="M 11,1 A 10,10 0 0 0 1,11 10,10 0 0 0 1.0098,11.293 10,10 0 0 1 11,1.5 10,10 0 0 1 20.99,11.207 10,10 0 0 0 21,11 10,10 0 0 0 11,1 Z" style="fill:#ffffff;opacity:.2"/>
 <path d="m10.841797 4.5078125a7 7 0 0 0 -6.841797 6.9921875 7 7 0 0 0 7 7 7 7 0 0 0 7 -7 7 7 0 0 0 -3.013672 -5.7324219v1.7304688a5 5 0 0 1 1.013672 3.0019531 5 5 0 0 1 -5 5 5 5 0 0 1 -5 -5 5 5 0 0 1 3.908203 -4.8730469c0.286067-0.3408095 0.640306-0.7670403 0.789063-0.9492187 0.04987-0.061074 0.09636-0.1130355 0.144531-0.1699219zm1.798828 1.0019531c-0.03697 0.016353-0.213816 0.2122762-0.394531 0.4335938-0.180714 0.2213171-0.575346 0.6943891-0.876953 1.0527344-0.301607 0.3583451-0.874369 1.0443141-1.271485 1.5234374-0.780165 0.9412708-0.904685 1.1310648-1.033203 1.5781248-0.080264 0.279217-0.087327 0.730245-0.01563 0.992188 0.196567 0.718088 0.853792 1.256244 1.701172 1.394531 0.03852 0.0063 0.171683 0.01393 0.294922 0.01563 0.513461 0.0074 0.950159-0.16604 1.320312-0.525391 0.195086-0.189393 0.249224-0.263897 0.369141-0.505859 0.07727-0.1559 0.16115-0.363727 0.1875-0.460938 0.0676-0.249337 0.09961-0.764496 0.06445-1.943359v-3.4335936c-0.018407-0.0927943-0.262255-0.1580078-0.345695-0.1210988z" style="opacity:.2"/>
 <path d="m10.841797 4.0078125a7 7 0 0 0 -6.841797 6.9921875 7 7 0 0 0 7 7 7 7 0 0 0 7 -7 7 7 0 0 0 -3.013672 -5.7324219v1.7304688a5 5 0 0 1 1.013672 3.0019531 5 5 0 0 1 -5 5 5 5 0 0 1 -5 -5 5 5 0 0 1 3.908203 -4.8730469c0.286067-0.3408095 0.640306-0.7670403 0.789063-0.9492187 0.04987-0.061074 0.09636-0.1130355 0.144531-0.1699219zm1.798828 1.0019531c-0.03697 0.016353-0.213816 0.2122762-0.394531 0.4335938-0.180714 0.2213171-0.575346 0.6943891-0.876953 1.0527344-0.301607 0.3583451-0.874369 1.0443141-1.271485 1.5234374-0.780165 0.9412705-0.904685 1.1310648-1.033203 1.5781248-0.080264 0.279217-0.087327 0.730245-0.01563 0.992188 0.196567 0.718088 0.853792 1.256244 1.701172 1.394531 0.03852 0.0063 0.171683 0.01393 0.294922 0.01563 0.513461 0.0074 0.950159-0.16604 1.320312-0.525391 0.195086-0.189393 0.249224-0.263897 0.369141-0.505859 0.07727-0.1559 0.16115-0.363727 0.1875-0.460938 0.0676-0.249337 0.09961-0.764496 0.06445-1.9433589v-3.4335937c-0.018407-0.0927943-0.262255-0.1580078-0.345695-0.1210988z" style="fill:#ffffff"/>
</svg>

<svg xmlns="http://www.w3.org/2000/svg" width="22" height="22" version="1.1" viewBox="0 0 22 22">
 <circle style="opacity:0.2" cx="11" cy="11.5" r="10"/>
 <circle style="fill:#248afd" cx="11" cy="11" r="10"/>
 <path style="opacity:0.2;fill:#ffffff" d="M 11,1 A 10,10 0 0 0 1,11 10,10 0 0 0 1.0098,11.293 10,10 0 0 1 11,1.5 10,10 0 0 1 20.99,11.207 10,10 0 0 0 21,11 10,10 0 0 0 11,1 Z"/>
 <path d="M 10.841797,4.5078125 A 7,7 0 0 0 4,11.5 a 7,7 0 0 0 7,7 7,7 0 0 0 7,-7 7,7 0 0 0 -3.013672,-5.7324219 l 0,1.7304688 A 5,5 0 0 1 16,10.5 a 5,5 0 0 1 -5,5 5,5 0 0 1 -5,-5 5,5 0 0 1 3.908203,-4.8730469 c 0.286067,-0.3408095 0.640306,-0.7670403 0.789063,-0.9492187 0.04987,-0.061074 0.09636,-0.1130355 0.144531,-0.1699219 z m 1.798828,1.0019531 C 12.603655,5.5261186 12.426809,5.7220418 12.246094,5.9433594 12.06538,6.1646765 11.670748,6.6377485 11.369141,6.9960938 11.067534,7.3544389 10.494772,8.0404079 10.097656,8.5195312 9.317491,9.460802 9.192971,9.650596 9.064453,10.097656 c -0.080264,0.279217 -0.087327,0.730245 -0.01563,0.992188 0.196567,0.718088 0.853792,1.256244 1.701172,1.394531 0.03852,0.0063 0.171683,0.01393 0.294922,0.01563 0.513461,0.0074 0.950159,-0.16604 1.320312,-0.525391 0.195086,-0.189393 0.249224,-0.263897 0.369141,-0.505859 0.07727,-0.1559 0.16115,-0.363727 0.1875,-0.460938 0.0676,-0.249337 0.09961,-0.764496 0.06445,-1.943359 l 0,-3.4335936 C 12.967913,5.5380701 12.724065,5.4728566 12.640625,5.5097656 Z" style="opacity:0.2"/>
 <path style="fill:#ffffff" d="M 10.841797,4.0078125 A 7,7 0 0 0 4,11 a 7,7 0 0 0 7,7 7,7 0 0 0 7,-7 7,7 0 0 0 -3.013672,-5.7324219 l 0,1.7304688 A 5,5 0 0 1 16,10 5,5 0 0 1 11,15 5,5 0 0 1 6,10 5,5 0 0 1 9.908203,5.1269531 c 0.286067,-0.3408095 0.640306,-0.7670403 0.789063,-0.9492187 0.04987,-0.061074 0.09636,-0.1130355 0.144531,-0.1699219 z m 1.798828,1.0019531 C 12.603655,5.0261186 12.426809,5.2220418 12.246094,5.4433594 12.06538,5.6646765 11.670748,6.1377485 11.369141,6.4960938 11.067534,6.8544389 10.494772,7.5404079 10.097656,8.0195312 9.317491,8.9608017 9.192971,9.150596 9.064453,9.597656 c -0.080264,0.279217 -0.087327,0.730245 -0.01563,0.992188 0.196567,0.718088 0.853792,1.256244 1.701172,1.394531 0.03852,0.0063 0.171683,0.01393 0.294922,0.01563 0.513461,0.0074 0.950159,-0.16604 1.320312,-0.525391 0.195086,-0.189393 0.249224,-0.263897 0.369141,-0.505859 0.07727,-0.1559 0.16115,-0.363727 0.1875,-0.460938 0.0676,-0.249337 0.09961,-0.764496 0.06445,-1.9433589 l 0,-3.4335937 C 12.967913,5.0380701 12.724065,4.9728566 12.640625,5.0097656 Z"/>
</svg>
